X: 1664
T: Let's Have a Little Fun With Gertie
B: australian traditional tunes wiki
M:4/4
L:1/4
R: Step Dance
Q: 1/4=100
K:D
V:1 
|:"D"DF/A/ d/A/F/D/|"G"GB GB|"D"DF/A/ d/A/F/D/|"A"GEE2|
"D"DF/A/ d/A/F/D/|"G"GB GB|"A"Ac/B/ A/G/F/E/|"D"Ddd2:|
|:"D"d/A/F/D/ D/F/A/d/|"A"c/B/G/F/ GG|A/B/c/B/ A/G/F/E/|"D"F/G/A/B/ "A"AA|
"D"d/A/F/D/ D/F/A/d/|"A"c/B/G/F/ GG|A/B/c/B/ A/G/F/E/|"D"Ddd2:|
% abcbook-tune_id 6342d53ae58041c5fbf72c9b


% abcbook-boost 0
% abcbook-tablature 
% abcbook-transpose 
% abcbook-lastupdated 1665324376877
% abcbook-soundfonts 
% abcbook-repeats 1
% NFF Book 2019

